icons/folder_type_vs_opened.svg

<svg xmlns="http://www.w3.org/2000/svg" viewBox="0 0 32 32"><path d="M27.4 5.5h-9.2l-2.1 4.2H4.3v4H.5l3.8 12.8h25.2v-21Zm-7.2 2.1h7.1v2.1h-8.1Zm5.5 6.1H6.6v-1.9h20.8v7.626Z" style="fill:#c67bdb"/><path d="M12.941 26.524a.88.88 0 0 1-.911.144L10.433 26a.881.881 0 0 1-.542-.812v-9.379a.88.88 0 0 1 .542-.809l1.6-.665a.879.879 0 0 1 .911.144l.358.307a.486.486 0 0 0-.769.4v10.635a.486.486 0 0 0 .769.4Z" style="fill:#52218a"/><path d="M10.433 26a.881.881 0 0 1-.542-.812v-.073a.508.508 0 0 0 .885.34L24.4 10.385a1.316 1.316 0 0 1 1.5-.255l4.35 2.095a1.319 1.319 0 0 1 .75 1.188v.051a.833.833 0 0 0-1.361-.644L13.3 26.217l-.358.307a.88.88 0 0 1-.911.144Z" style="fill:#6c33af"/><path d="M10.433 15a.881.881 0 0 0-.542.812v.073a.508.508 0 0 1 .885-.34L24.4 30.614a1.314 1.314 0 0 0 1.5.255l4.35-2.094a1.318 1.318 0 0 0 .75-1.189v-.05a.833.833 0 0 1-1.361.644L13.3 14.783l-.358-.307a.88.88 0 0 0-.911-.144Z" style="fill:#854cc7"/><path d="M25.9 30.87a1.317 1.317 0 0 1-1.5-.255.773.773 0 0 0 1.32-.547V10.932a.773.773 0 0 0-1.32-.547 1.317 1.317 0 0 1 1.5-.255l4.348 2.091A1.32 1.32 0 0 1 31 13.41v14.18a1.32 1.32 0 0 1-.748 1.189Z" style="fill:#b179f1"/></svg>

<svg xmlns="http://www.w3.org/2000/svg" viewBox="0 0 32 32"><title>folder_type_vs_opened</title><path d="M27.4,5.5H18.2L16.1,9.7H4.3v4H.5L4.3,26.5H29.5V5.5ZM20.2,7.6h7.1V9.7H19.2Zm5.5,6.1H6.6V11.8H27.4v7.626Z" style="fill:#c67bdb"/><path d="M12.941,26.524a.88.88,0,0,1-.911.144L10.433,26a.881.881,0,0,1-.542-.812V15.809A.88.88,0,0,1,10.433,15l1.6-.665a.879.879,0,0,1,.911.144l.358.307a.486.486,0,0,0-.769.4V25.821a.486.486,0,0,0,.769.4Z" style="fill:#52218a"/><path d="M10.433,26a.881.881,0,0,1-.542-.812v-.073a.508.508,0,0,0,.885.34L24.4,10.385a1.316,1.316,0,0,1,1.5-.255l4.35,2.095A1.319,1.319,0,0,1,31,13.413v.051a.833.833,0,0,0-1.361-.644L13.3,26.217l-.358.307a.88.88,0,0,1-.911.144Z" style="fill:#6c33af"/><path d="M10.433,15a.881.881,0,0,0-.542.812v.073a.508.508,0,0,1,.885-.34L24.4,30.614a1.314,1.314,0,0,0,1.5.255l4.35-2.094A1.318,1.318,0,0,0,31,27.586v-.05a.833.833,0,0,1-1.361.644L13.3,14.783l-.358-.307a.88.88,0,0,0-.911-.144Z" style="fill:#854cc7"/><path d="M25.9,30.87a1.317,1.317,0,0,1-1.5-.255.773.773,0,0,0,1.32-.547V10.932a.773.773,0,0,0-1.32-.547,1.317,1.317,0,0,1,1.5-.255l4.348,2.091A1.32,1.32,0,0,1,31,13.41V27.59a1.32,1.32,0,0,1-.748,1.189Z" style="fill:#b179f1"/></svg>
